src/assets/svgs/email.svg

<svg width="26" height="17" viewBox="0 0 26 17" fill="none" xmlns="http://www.w3.org/2000/svg">
<path d="M1.92589 2.00332C2.57042 2.35449 11.5235 7.39805 11.8575 7.57969C12.1915 7.76133 12.5314 7.84609 13.0587 7.84609C13.586 7.84609 13.9259 7.76133 14.2599 7.57969C14.5939 7.39805 23.547 2.35449 24.1915 2.00332C24.4318 1.87617 24.836 1.64609 24.9239 1.38574C25.0763 0.925586 24.9122 0.75 24.2618 0.75H13.0587H1.85558C1.20519 0.75 1.04113 0.931641 1.19347 1.38574C1.28136 1.65215 1.68566 1.87617 1.92589 2.00332Z" fill="white"/>
<path d="M24.7012 2.27579C24.2207 2.53009 19.9082 5.70274 17.0547 7.60997L21.8711 13.2106C21.9883 13.3316 22.041 13.477 21.9766 13.5496C21.9062 13.6162 21.7539 13.5799 21.6309 13.4649L15.8535 8.42735C14.9805 9.0086 14.3652 9.40821 14.2598 9.46876C13.8086 9.70489 13.4922 9.73517 13.0586 9.73517C12.625 9.73517 12.3086 9.70489 11.8574 9.46876C11.7461 9.40821 11.1367 9.0086 10.2637 8.42735L4.48633 13.4649C4.36914 13.5859 4.21094 13.6223 4.14063 13.5496C4.07031 13.483 4.12305 13.3316 4.24023 13.2106L9.05078 7.60997C6.19727 5.70274 1.83789 2.53009 1.35742 2.27579C0.841797 2.00333 0.8125 2.32423 0.8125 2.57247C0.8125 2.82071 0.8125 14.9846 0.8125 14.9846C0.8125 15.5477 1.61523 16.25 2.18945 16.25H13.0586H23.9277C24.502 16.25 25.1875 15.5416 25.1875 14.9846C25.1875 14.9846 25.1875 2.81466 25.1875 2.57247C25.1875 2.31817 25.2227 2.00333 24.7012 2.27579Z" fill="white"/>
</svg>

<svg width="26" height="17" fill="none" xmlns="http://www.w3.org/2000/svg"><path d="M1.926 2.003c.644.351 9.598 5.395 9.931 5.577.335.181.674.266 1.202.266.527 0 .867-.085 1.2-.266.335-.182 9.288-5.226 9.933-5.577.24-.127.644-.357.732-.617.152-.46-.012-.636-.662-.636H1.856c-.65 0-.815.182-.663.636.088.266.493.49.733.617z" fill="#fff"/><path d="M24.701 2.276c-.48.254-4.793 3.427-7.646 5.334l4.816 5.6c.117.122.17.267.106.34-.07.066-.223.03-.346-.085l-5.777-5.038A65.45 65.45 0 0 1 14.26 9.47c-.451.236-.768.266-1.201.266-.434 0-.75-.03-1.202-.266-.11-.06-.72-.46-1.593-1.042l-5.778 5.038c-.117.12-.275.157-.345.085-.07-.067-.018-.218.1-.34l4.81-5.6C6.197 5.703 1.838 2.53 1.357 2.276c-.515-.273-.544.048-.544.296v12.413c0 .563.802 1.265 1.376 1.265H23.928c.574 0 1.26-.708 1.26-1.265V2.572c0-.254.035-.569-.487-.296z" fill="#fff"/></svg>
